app/images/social__icon--fb.svg

<?xml version="1.0" encoding="UTF-8"?>
<svg width="21px" height="55px" viewBox="0 0 21 55" version="1.1" xmlns="http://www.w3.org/2000/svg" xmlns:xlink="http://www.w3.org/1999/xlink">
    <!-- Generator: Sketch 56.3 (81716) - https://sketch.com -->
    <title>Group 3</title>
    <desc>Created with Sketch.</desc>
    <defs>
        <polygon id="path-1" points="0 0 21 0 21 55 0 55"></polygon>
    </defs>
    <g id="Welcome" stroke="none" stroke-width="1" fill="none" fill-rule="evenodd">
        <g id="v1-Homepage" transform="translate(-423.000000, -2708.000000)">
            <g id="Group-3" transform="translate(423.000000, 2708.000000)">
                <mask id="mask-2" fill="white">
                    <use xlink:href="#path-1"></use>
                </mask>
                <g id="Clip-2"></g>
                <path d="M13.8444444,16.4964123 L13.8444444,12.0978474 C13.8444444,9.95596869 15.0125786,9.45727332 15.8343816,9.45727332 L20.8825996,9.45727332 L20.8825996,0.0358773646 L13.9295597,0 C6.21341719,0 4.46121593,7.02837573 4.46121593,11.5273973 L4.46121593,16.4964123 L0,16.4964123 L0,27.5 L4.49937107,27.5 L4.49937107,55 L13.4981132,55 L13.4981132,27.5 L20.1752621,27.5 L21,16.4964123 L13.8444444,16.4964123 Z" id="Fill-1" fill="#FFFFFF" mask="url(#mask-2)"></path>
            </g>
        </g>
    </g>
</svg>

<svg width="21" height="55" xmlns="http://www.w3.org/2000/svg" xmlns:xlink="http://www.w3.org/1999/xlink"><defs><path id="a" d="M0 0h21v55H0z"/></defs><g fill="none" fill-rule="evenodd"><mask id="b" fill="#fff"><use xlink:href="#a"/></mask><path d="M13.844 16.496v-4.398c0-2.142 1.169-2.64 1.99-2.64h5.049V.035L13.93 0C6.213 0 4.46 7.028 4.46 11.527v4.97H0V27.5h4.5V55h8.998V27.5h6.677L21 16.496h-7.156z" fill="#FFF" mask="url(#b)"/></g></svg>
